X:17
T:Lubbers Hole, or Tower Lane
M:2/4
L:1/8
B:Thompson's Compleat Collection of 200 Favourite Country Dances, vol. 2 (London, 1765)
Z:Transcribed and edited by Flynn Titford-Mock, 2007
Z:abc's:AK/Fiddler's Companion
K:Bb
BdcB | df f2 | BdcB | c/B/A/G/ F2 | BdcB | (3def f2 | g/a/b ag | ag f2 :|
|: bf d/e/f/d/ | Bf d/e/f/d/ | bf d/e/f/d/ | ec c2 | bf d/e/f/d/ | Bfdf | g>g a>a | b>B B2 :|

